icon-themes/karasa_jaga_svg/cmd/32/km/bold.svg

<svg height="32" viewBox="0 0 32 32" width="32" xmlns="http://www.w3.org/2000/svg" xmlns:xlink="http://www.w3.org/1999/xlink"><linearGradient id="a" gradientUnits="userSpaceOnUse" x1="12.829027" x2="13.239554" y1="22.269323" y2="1.309959"><stop offset="0" stop-color="#555"/><stop offset="1"/></linearGradient><g fill="url(#a)" transform="matrix(1.3211532 0 0 1.345619 .00004 .000041)"><path d="m6.0552854 7.4314937h3.7845724v1.4389687l3.4817882.0000004c.904258.0000001 1.036261-.2025002 1.059699-.6055305v-2.7854382l3.784542.0000004v2.7854382c0 1.9215483-.968995 2.8589723-2.906545 2.8823233h-9.2040566zm3.7845876 12.1975893 2.282839-2.349457 2.258648 2.325235-.000015-6.9713h3.784542v9.660981h-3.245641l-2.797534-2.047819-2.8096749 2.047819h-3.2577517v-9.660981h3.7845724z"/><path d="m6.660815 3.6629043c0-2.0184335 1.4532723-3.02765027 4.359817-3.02765027 1.202986 0 2.373677.30276503 3.512074.90829507 1.130322.6055301 2.139539 1.3119818 3.02765 2.1193552v1.8165902h-9.6884809c-.8073734 0-1.2110601-.60553-1.2110601-1.8165902zm4.359817-.8477421c-.888111 0-1.3321667.3633181-1.3321667 1.0899541h4.9411257c-.904259-.726636-2.107245-1.0899541-3.608959-1.0899541z"/></g></svg>

<?xml version="1.0" encoding="UTF-8" standalone="no"?>
<svg
   xmlns:dc="http://purl.org/dc/elements/1.1/"
   xmlns:cc="http://creativecommons.org/ns#"
   xmlns:rdf="http://www.w3.org/1999/02/22-rdf-syntax-ns#"
   xmlns:svg="http://www.w3.org/2000/svg"
   xmlns="http://www.w3.org/2000/svg"
   xmlns:xlink="http://www.w3.org/1999/xlink"
   xmlns:sodipodi="http://sodipodi.sourceforge.net/DTD/sodipodi-0.dtd"
   xmlns:inkscape="http://www.inkscape.org/namespaces/inkscape"
   viewBox="0 0 32 32"
   version="1.1"
   id="svg13"
   sodipodi:docname="bold.svg"
   width="32"
   height="32"
   inkscape:version="0.92.4 (unknown)"
   inkscape:export-filename="/home/rizmut/Dokumen/Rizmut/Github/libreoffice-style-karasa-jaga/build/next/cmd/32/km/bold.png"
   inkscape:export-xdpi="96"
   inkscape:export-ydpi="96">
  <metadata
     id="metadata19">
    <rdf:RDF>
      <cc:Work
         rdf:about="">
        <dc:format>image/svg+xml</dc:format>
        <dc:type
           rdf:resource="http://purl.org/dc/dcmitype/StillImage" />
        <dc:title></dc:title>
      </cc:Work>
    </rdf:RDF>
  </metadata>
  <defs
     id="defs17">
    <linearGradient
       inkscape:collect="always"
       xlink:href="#a"
       id="linearGradient828"
       gradientUnits="userSpaceOnUse"
       x1="12.829027"
       y1="22.269323"
       x2="13.239554"
       y2="1.3099591" />
    <linearGradient
       inkscape:collect="always"
       xlink:href="#a"
       id="linearGradient830"
       gradientUnits="userSpaceOnUse"
       x1="12.829027"
       y1="22.269323"
       x2="13.239554"
       y2="1.3099591" />
    <linearGradient
       inkscape:collect="always"
       xlink:href="#a"
       id="linearGradient832"
       gradientUnits="userSpaceOnUse"
       x1="12.829027"
       y1="22.269323"
       x2="13.239554"
       y2="1.3099591" />
  </defs>
  <sodipodi:namedview
     pagecolor="#ffffff"
     bordercolor="#666666"
     borderopacity="1"
     objecttolerance="10"
     gridtolerance="10"
     guidetolerance="10"
     inkscape:pageopacity="0"
     inkscape:pageshadow="2"
     inkscape:window-width="1366"
     inkscape:window-height="714"
     id="namedview15"
     showgrid="true"
     inkscape:zoom="9.8333333"
     inkscape:cx="24.141406"
     inkscape:cy="7.9220208"
     inkscape:window-x="0"
     inkscape:window-y="28"
     inkscape:window-maximized="1"
     inkscape:current-layer="svg13">
    <inkscape:grid
       type="xygrid"
       id="grid826" />
  </sodipodi:namedview>
  <linearGradient
     id="a"
     gradientUnits="userSpaceOnUse"
     x1="12.829027"
     x2="13.239554"
     y1="22.269323"
     y2="1.3099591">
    <stop
       offset="0"
       stop-color="#555"
       id="stop2" />
    <stop
       offset="1"
       id="stop4" />
  </linearGradient>
  <g
     transform="matrix(1.3211532,0,0,1.345619,4.0338581e-5,4.0882333e-5)"
     id="g11"
     style="fill:url(#linearGradient832)">
    <path
       d="m 6.0552854,7.4314937 h 3.7845724 v 1.4389687 l 3.4817882,4e-7 c 0.904258,10e-8 1.036261,-0.2025002 1.059699,-0.6055305 V 5.4794941 l 3.784542,4e-7 v 2.7854382 c 0,1.9215483 -0.968995,2.8589723 -2.906545,2.8823233 H 6.0552854 Z m 3.7845876,12.1975893 2.282839,-2.349457 2.258648,2.325235 -1.5e-5,-6.9713 h 3.784542 l 0,9.660981 H 14.920246 L 12.122712,20.246723 9.3130371,22.294542 H 6.0552854 l 0,-9.660981 h 3.7845724 z"
       id="path7"
       inkscape:connector-curvature="0"
       style="fill:url(#linearGradient828)"
       sodipodi:nodetypes="cccssccssccccccccccccccc" />
    <path
       d="m 6.660815,3.6629043 c 0,-2.0184335 1.4532723,-3.02765027 4.359817,-3.02765027 1.202986,0 2.373677,0.30276503 3.512074,0.90829507 1.130322,0.6055301 2.139539,1.3119818 3.02765,2.1193552 V 5.4794945 H 7.8718751 c -0.8073734,0 -1.2110601,-0.60553 -1.2110601,-1.8165902 z m 4.359817,-0.8477421 c -0.888111,0 -1.3321667,0.3633181 -1.3321667,1.0899541 H 14.629591 C 13.725332,3.1784803 12.522346,2.8151622 11.020632,2.8151622 Z"
       id="path9"
       inkscape:connector-curvature="0"
       style="fill:url(#linearGradient830)"
       sodipodi:nodetypes="sscccsssccs" />
  </g>
</svg>
